X:1
T:Quem dicunt homines
T:Girolamo  Scotto
T:Source : Bicinia---Tomus II---Wittemberg---G.Rhau---1545. Editor : André Vierendeels (27/06/17).
T:Notes : Original clefs  : C3, C4 Editorial accidentals above the staff Original note values have been halved Only "Prima pars"
T:Quem dicunt homines
T:©
T:©
T:©
T:©
C:Girolamo  Scotto
Z:©
%%score [ 1 2 ]
L:1/8
Q:1/4=120
M:2/2
K:C
V:1 treble-8 nm="Tenor 1" snm="T 1"
V:2 treble-8 nm="Tenor 2" snm="T 2"
V:1
 z8 | z4 c4 | c2 c2 d2 e2 | c2 c2 f3 e | d2 c2 e2 f2 | d4 c2 e2- | e2 d2 e2 c2 | d2 c4 f2- | %8
w: |Quem|di- cunt ho- mi-|nes es- se fi-|li- um ho- *||* mi- nis, re-|spon- dens Pe-|
 f2 e2 f2 g2- | g2 f2 g4 | z2 d2 g3 f | e2 d2 e3 d | ef g4 f2 | gfed cB A2 | G2 cd ef g2- | %15
w: * * * trus|_ di- xit,|re- spon- *|* dens Pe- *|* * * trus|di- * * * * * *||
 g2 fe d2 c2- | c2 c2 B2 A2 | c3 B G2 B2 | A2 d4 c2 | dcBA BG d2- | d2 c2 A2 B2 | G2 g2 g2 g2 | %22
w: * * * xit: Tu|_ es Chri- stus|fi- * * li-|us De- i|vi- * * * * * *||vi, di- xit au-|
 d2 f4 ed | e8 | z2 e2 f4 | g2 c4 f2 | e2 d2 c2 B2 | c2 d2 A2 e2 | f2 e4 d2 | e2 e4 f2 | f2 e4 e2 | %31
w: tem Ie- * *|sus:|Be- a-|tus es, Si-|mon Pe- * *|* * tre, Si-|mon Pe- *|* tre, qui-|a ca- ro|
 d4 e2 c2 | d2 e2 f2 g2- | g2 f2 g3 f | e2 d2 e2 g2- | g2 fe d2 g2- | g2 f2 g4 | z2 d2 e2 f2 | %38
w: et san- guis|non re- ve- la-|* vit ti- *|||* * bi|sed pa- ter|
 g2 d4 e2 | f2 g4 f2 | gfed c2 f2 | d2 g4 f2 | e4 d4 | c2 g2 a2 f2 | g3 f/e/ f2 e2 | d2 g4 f2 | %46
w: me- us qui|est in cae-|* * * * lis, et|e- go di-|co ti-|bi, et e- go|di- * * * co|ti- * *|
 g8 | z2 g2 g2 g2 | e2 f2 g3 f | e2 d2 e2 c2 | z2 c2 c2 c2 | A2 B2 c4 | z2 A2 A2 G2 | %53
w: bi:|Qui- a tu|es Pe- * *|* * * trus,|et su- per|hanc pe- tram,|[et su- per|
 A2 B2 c2 B2- | B2 d2 B2 G2 | B2 c2 A2 e2- | ef g4 f2 | g2 d2 f4- | f2 e2 d2 c2 | d4 z2 G2 | %60
w: hanc pe- * tram,]|_ e- di- fi-|ca- bo ec- cle-|* si- am me-|am, ec- cle-|* si- am me-|am, al-|
 A2 B2 c4 | z2 B2 c2 A2 | B2 d2 e2 d2 | c2 G2 A2 B2 | cBcd e2 d2- | dc c4 B2 | c8 |] %67
w: le- lu- ia,|al- le- lu-|ia, al- le- lu-|a, al- le- lu-|* * * * ia, al-|* * le- lu-|a.|
V:2
 C4 C2 C2 | D2 E2 C2 C2 | F3 E D2 C2 | E2 F2 D2 F2 | G2 A4 D2- | DEFG A4 | B4 A2 A2 | D2 E2 F2 D2 | %8
w: Quem di- cunt|ho- mi- nes es-|se fi- li- um|ho- * * *|||mi- nis, re-|spon- dens Pe- *|
 A3 G F2 E2 | D4 C2 G2 | A2 G4 c2- | c2 B2 c2 c2- | c2 B2 A4 | G2 c4 c2 | B2 A2 c3 B | %15
w: * * * trus|di- xit, re-|spon- dens Pe-|* * trus di-||xit, tu es|Chri- stus fi- li-|
 G2 A2 _B2 A2 | FGAF G2 F2- | F2 C4 G2 | F2 D2 E4 | D2 G2 G2 G2 | D2 F2 F2 ED | E2 CD EF G2- | %22
w: us De- i vi-||* vi, De-|i vi- *|vi, di- xit au-|* * tem _ _|Ie- * * * * *|
 GFDE FGAB | c2 A3 GAB | cBAG FE D2 | C2 E2 F4 | G4 C2 G2 | A2 G2 c3 B | A2 G2 F4 | E2 A4 A2 | %30
w: ||* * * * * * sus:|be- a- tus|es, be- a-|tus es, Si- mon|Pe- * *|tre, qui- a|
 A4 A2 A2 | _B4 A4 | G2 c2 d2 _B2 | A4 G2 c2 | c2 B2 A2 G2 | c4 B4 | z2 A2 B2 c2 | d2 B2 A4 | %38
w: ca- ro et|san- *|guis, et san- *|guis non re-|ve- la- * *|* vit|ti- bi sed|pa- ter me-|
 G3 A B2 c2- | c2 B2 A4 | z2 G2 A2 F2 |"^#" G3 A Bc d2- | dc c4 B2 | c3 B A2 d2 | e2 c2 d2 A2 | %45
w: us, qui est in|_ cae- lis,|et e- go|di- * * * co-|* * ti- *|bi, _ _ _|_ et e- go|
 B2 c2 A4 | G2 c2 c2 c2 | A2 B2 c2 G2 | A2 D2 z2 G2 | G2 G2 E2 F2 | G2 A3 G F2- | F2 ED C2 F2 | %52
w: di- co ti-|bi: qui- a tu|es Pe- * *|* trus, qui-|a tu es Pe-||* * * trus, et|
 F2 F2 D2 E2 | F2 G2 C2 G2 | G2 G2 G4 | E2 C2 c3 B | A2 G2 A4 | G4 z2 D2 | A3 G F2 E2 | %59
w: su- per hanc pe-|* * tram, ae-|di- fi- ca-|bo ec- cle- *|* si- *|am, ec-|cle- * * si-|
 D2 G2 A2 B2 | c2 G2 A2 F2 | G4 C2 F2 | E2 D2 C2 G2 | A2 B2 c2 G2 | A6 D2 | E2 F2 D4 | C8 |] %67
w: am, al- le- lu-|ia, al- le- lu-|ia, al- le-|lu- ia, al- le-|lu- ia, al- le-|lu- ia,|al- le- lu-|ia.|

